static/img/kroki/a956400ca5c1fd53f8a4af13ed82561b.svg

<?xml version="1.0" encoding="us-ascii" standalone="no"?><svg xmlns="http://www.w3.org/2000/svg" xmlns:xlink="http://www.w3.org/1999/xlink" contentStyleType="text/css" height="706px" preserveAspectRatio="none" style="width:241px;height:706px;" version="1.1" viewBox="0 0 241 706" width="241px" zoomAndPan="magnify"><defs/><g><!--class azure_resource--><g id="elem_azure_resource"><rect codeLine="22" fill="#3D176E" height="39.7891" id="azure_resource" rx="2.5" ry="2.5" style="stroke:#000D19;stroke-width:0.5;" width="168" x="36.5" y="438.76"/><ellipse cx="51.5" cy="458.6545" fill="#ADD1B2" rx="11" ry="11" style="stroke:#181818;stroke-width:1.0;"/><path d="M54.4688,464.2952 Q53.8906,464.592 53.25,464.7327 Q52.6094,464.8889 51.9063,464.8889 Q49.4063,464.8889 48.0781,463.2483 Q46.7656,461.592 46.7656,458.467 Q46.7656,455.342 48.0781,453.6858 Q49.4063,452.0295 51.9063,452.0295 Q52.6094,452.0295 53.25,452.1858 Q53.9063,452.342 54.4688,452.6389 L54.4688,455.3577 Q53.8438,454.7795 53.25,454.5139 Q52.6563,454.2327 52.0313,454.2327 Q50.6875,454.2327 50,455.3108 Q49.3125,456.3733 49.3125,458.467 Q49.3125,460.5608 50,461.6389 Q50.6875,462.7014 52.0313,462.7014 Q52.6563,462.7014 53.25,462.4358 Q53.8438,462.1545 54.4688,461.5764 L54.4688,464.2952 Z " fill="#000000"/><text fill="#D9B8FF" font-family="Helvetica" font-size="17" lengthAdjust="spacing" textLength="126" x="70.5" y="464.5398">azure_resource</text></g><!--class azure_web_category--><g id="elem_azure_web_category"><rect codeLine="24" fill="#3D176E" height="100.3828" id="azure_web_category" rx="2.5" ry="2.5" style="stroke:#000D19;stroke-width:0.5;" width="213" x="14" y="599.55"/><ellipse cx="29" cy="619.4445" fill="#ADD1B2" rx="11" ry="11" style="stroke:#181818;stroke-width:1.0;"/><path d="M31.9688,625.0852 Q31.3906,625.382 30.75,625.5227 Q30.1094,625.6789 29.4063,625.6789 Q26.9063,625.6789 25.5781,624.0383 Q24.2656,622.382 24.2656,619.257 Q24.2656,616.132 25.5781,614.4758 Q26.9063,612.8195 29.4063,612.8195 Q30.1094,612.8195 30.75,612.9758 Q31.4063,613.132 31.9688,613.4289 L31.9688,616.1477 Q31.3438,615.5695 30.75,615.3039 Q30.1563,615.0227 29.5313,615.0227 Q28.1875,615.0227 27.5,616.1008 Q26.8125,617.1633 26.8125,619.257 Q26.8125,621.3508 27.5,622.4289 Q28.1875,623.4914 29.5313,623.4914 Q30.1563,623.4914 30.75,623.2258 Q31.3438,622.9445 31.9688,622.3664 L31.9688,625.0852 Z " fill="#000000"/><text fill="#D9B8FF" font-family="Helvetica" font-size="17" lengthAdjust="spacing" textLength="171" x="48" y="625.3298">azure_web_category</text><line style="stroke:#000D19;stroke-width:0.5;" x1="15" x2="226" y1="639.3391" y2="639.3391"/><text fill="#D9B8FF" font-family="sans-serif" font-size="14" font-weight="bold" lengthAdjust="spacing" textLength="35" x="25" y="661.3342">etag</text><text fill="#D9B8FF" font-family="sans-serif" font-size="14" lengthAdjust="spacing" textLength="48" x="60" y="661.3342">: string</text><text fill="#D9B8FF" font-family="sans-serif" font-size="14" font-weight="bold" lengthAdjust="spacing" textLength="83" x="25" y="687.6311">properties</text><text fill="#D9B8FF" font-family="sans-serif" font-size="14" lengthAdjust="spacing" textLength="48" x="108" y="687.6311">: string</text></g><!--class resource--><g id="elem_resource"><rect codeLine="28" fill="#3D176E" height="310.7578" id="resource" rx="2.5" ry="2.5" style="stroke:#000D19;stroke-width:0.5;" width="227" x="7" y="7"/><ellipse cx="75.75" cy="26.8945" fill="#ADD1B2" rx="11" ry="11" style="stroke:#181818;stroke-width:1.0;"/><path d="M78.7188,32.5352 Q78.1406,32.832 77.5,32.9727 Q76.8594,33.1289 76.1563,33.1289 Q73.6563,33.1289 72.3281,31.4883 Q71.0156,29.832 71.0156,26.707 Q71.0156,23.582 72.3281,21.9258 Q73.6563,20.2695 76.1563,20.2695 Q76.8594,20.2695 77.5,20.4258 Q78.1563,20.582 78.7188,20.8789 L78.7188,23.5977 Q78.0938,23.0195 77.5,22.7539 Q76.9063,22.4727 76.2813,22.4727 Q74.9375,22.4727 74.25,23.5508 Q73.5625,24.6133 73.5625,26.707 Q73.5625,28.8008 74.25,29.8789 Q74.9375,30.9414 76.2813,30.9414 Q76.9063,30.9414 77.5,30.6758 Q78.0938,30.3945 78.7188,29.8164 L78.7188,32.5352 Z " fill="#000000"/><text fill="#D9B8FF" font-family="Helvetica" font-size="17" lengthAdjust="spacing" textLength="71" x="101.25" y="32.7798">resource</text><line style="stroke:#000D19;stroke-width:0.5;" x1="8" x2="233" y1="46.7891" y2="46.7891"/><text fill="#D9B8FF" font-family="sans-serif" font-size="14" font-weight="bold" lengthAdjust="spacing" textLength="29" x="18" y="68.7842">age</text><text fill="#D9B8FF" font-family="sans-serif" font-size="14" lengthAdjust="spacing" textLength="66" x="47" y="68.7842">: duration</text><text fill="#D9B8FF" font-family="sans-serif" font-size="14" font-weight="bold" lengthAdjust="spacing" textLength="43" x="18" y="95.0811">atime</text><text fill="#D9B8FF" font-family="sans-serif" font-size="14" lengthAdjust="spacing" textLength="70" x="61" y="95.0811">: datetime</text><text fill="#D9B8FF" font-family="sans-serif" font-size="14" font-weight="bold" lengthAdjust="spacing" textLength="43" x="18" y="121.3779">ctime</text><text fill="#D9B8FF" font-family="sans-serif" font-size="14" lengthAdjust="spacing" textLength="70" x="61" y="121.3779">: datetime</text><text fill="#D9B8FF" font-family="sans-serif" font-size="14" font-weight="bold" lengthAdjust="spacing" textLength="14" x="18" y="147.6748">id</text><text fill="#D9B8FF" font-family="sans-serif" font-size="14" lengthAdjust="spacing" textLength="48" x="32" y="147.6748">: string</text><text fill="#D9B8FF" font-family="sans-serif" font-size="14" font-weight="bold" lengthAdjust="spacing" textLength="33" x="18" y="173.9717">kind</text><text fill="#D9B8FF" font-family="sans-serif" font-size="14" lengthAdjust="spacing" textLength="48" x="51" y="173.9717">: string</text><text fill="#D9B8FF" font-family="sans-serif" font-size="14" font-weight="bold" lengthAdjust="spacing" textLength="90" x="18" y="200.2686">last_access</text><text fill="#D9B8FF" font-family="sans-serif" font-size="14" lengthAdjust="spacing" textLength="66" x="108" y="200.2686">: duration</text><text fill="#D9B8FF" font-family="sans-serif" font-size="14" font-weight="bold" lengthAdjust="spacing" textLength="90" x="18" y="226.5654">last_update</text><text fill="#D9B8FF" font-family="sans-serif" font-size="14" lengthAdjust="spacing" textLength="66" x="108" y="226.5654">: duration</text><text fill="#D9B8FF" font-family="sans-serif" font-size="14" font-weight="bold" lengthAdjust="spacing" textLength="48" x="18" y="252.8623">mtime</text><text fill="#D9B8FF" font-family="sans-serif" font-size="14" lengthAdjust="spacing" textLength="70" x="66" y="252.8623">: datetime</text><text fill="#D9B8FF" font-family="sans-serif" font-size="14" font-weight="bold" lengthAdjust="spacing" textLength="43" x="18" y="279.1592">name</text><text fill="#D9B8FF" font-family="sans-serif" font-size="14" lengthAdjust="spacing" textLength="48" x="61" y="279.1592">: string</text><text fill="#D9B8FF" font-family="sans-serif" font-size="14" font-weight="bold" lengthAdjust="spacing" textLength="34" x="18" y="305.4561">tags</text><text fill="#D9B8FF" font-family="sans-serif" font-size="14" lengthAdjust="spacing" textLength="171" x="52" y="305.4561">: dictionary[string, string]</text></g><!--reverse link resource to azure_resource--><g id="link_resource_azure_resource"><path codeLine="40" d="M120.5,335.84 C120.5,384.13 120.5,413.37 120.5,438.67 " fill="none" id="resource-backto-azure_resource" style="stroke:#FFAF37;stroke-width:2.0;"/><polygon fill="none" points="120.5,317.84,114.5,335.84,126.5,335.84,120.5,317.84" style="stroke:#FFAF37;stroke-width:2.0;"/></g><!--reverse link azure_resource to azure_web_category--><g id="link_azure_resource_azure_web_category"><path codeLine="41" d="M120.5,496.82 C120.5,524.8 120.5,559.77 120.5,599.16 " fill="none" id="azure_resource-backto-azure_web_category" style="stroke:#FFAF37;stroke-width:2.0;"/><polygon fill="none" points="120.5,478.82,114.5,496.82,126.5,496.82,120.5,478.82" style="stroke:#FFAF37;stroke-width:2.0;"/></g><!--SRC=[XP91IyD048Nl_HKBteA5rgArugKMH2z5r9j8cUnEqgNDRfYTM5BrlxinjcmtLM_XlI_ptWoxr0e55YNNei0YHN8zjzAc1892J8diPcRNbiH9ba4s6iVchJNyBp270iKThj-GjOIOU5vgkJBed3WBh1kGgvniPLGxdWcCynOQ3gZP6foRCfDEAyQWZ9gabraMa_7Gav4QZY-mWrbII3_8O31GmqcC_1lrvzvxuablKGp3eyqjOwTc9-AR-hDbGmGbEulk_5yxFe1IskJYFD0Usqvaa0xqfoKeksde3DOkZ76CX9Rh4cUThN1ogRBnKVZ-DrWsbnEmhGWNXCvM956yzpuFZ0sc2mcCkQNQcqc237cINFa0yYMzK98jaLYZ2-JTa61kaa2E3Q8g0jRMD0hhejLyHFFjDNb4q-eWqczvAFWiNe2K_kL72TzELJQp8gSuacEWbVQ3_RBjH2sRtu3gbzOx_M5U_Qhx9Qy_-lr-TD5UTE2G2O_x1G00]--></g></svg>

<svg xmlns="http://www.w3.org/2000/svg" width="241" height="706" viewBox="0 0 241 706"><rect width="168" height="39.789" x="36.5" y="438.76" fill="#3D176E" rx="2.5" ry="2.5" style="stroke:#000d19;stroke-width:.5"/><circle cx="51.5" cy="458.654" r="11" fill="#ADD1B2" style="stroke:#181818;stroke-width:1"/><path d="M54.469 464.295q-.578.297-1.219.438-.64.156-1.344.156-2.5 0-3.828-1.64-1.312-1.657-1.312-4.782t1.312-4.781q1.328-1.656 3.828-1.656.703 0 1.344.156.656.156 1.219.453v2.719q-.625-.579-1.219-.844-.594-.281-1.219-.281-1.343 0-2.031 1.078-.687 1.062-.687 3.156t.687 3.172q.688 1.062 2.031 1.062.625 0 1.219-.265.594-.281 1.219-.86z"/><text x="70.5" y="464.54" fill="#D9B8FF" font-family="Helvetica" font-size="17" textLength="126">azure_resource</text><rect width="213" height="100.383" x="14" y="599.55" fill="#3D176E" rx="2.5" ry="2.5" style="stroke:#000d19;stroke-width:.5"/><circle cx="29" cy="619.444" r="11" fill="#ADD1B2" style="stroke:#181818;stroke-width:1"/><path d="M31.969 625.085q-.578.297-1.219.438-.64.156-1.344.156-2.5 0-3.828-1.64-1.312-1.657-1.312-4.782t1.312-4.781q1.328-1.657 3.828-1.657.703 0 1.344.157.656.156 1.219.453v2.719q-.625-.579-1.219-.844-.594-.281-1.219-.281-1.343 0-2.031 1.078-.687 1.062-.687 3.156t.687 3.172q.688 1.062 2.031 1.062.625 0 1.219-.265.594-.282 1.219-.86z"/><text x="48" y="625.33" fill="#D9B8FF" font-family="Helvetica" font-size="17" textLength="171">azure_web_category</text><path d="M15 639.339h211" style="stroke:#000d19;stroke-width:.5"/><text x="25" y="661.334" fill="#D9B8FF" font-family="sans-serif" font-size="14" font-weight="bold" textLength="35">etag</text><text x="60" y="661.334" fill="#D9B8FF" font-family="sans-serif" font-size="14" textLength="48">: string</text><text x="25" y="687.631" fill="#D9B8FF" font-family="sans-serif" font-size="14" font-weight="bold" textLength="83">properties</text><text x="108" y="687.631" fill="#D9B8FF" font-family="sans-serif" font-size="14" textLength="48">: string</text><rect width="227" height="310.758" x="7" y="7" fill="#3D176E" rx="2.5" ry="2.5" style="stroke:#000d19;stroke-width:.5"/><circle cx="75.75" cy="26.895" r="11" fill="#ADD1B2" style="stroke:#181818;stroke-width:1"/><path d="M78.719 32.535q-.578.297-1.219.438-.64.156-1.344.156-2.5 0-3.828-1.64-1.312-1.657-1.312-4.782t1.312-4.781q1.328-1.656 3.828-1.656.703 0 1.344.156.656.156 1.219.453v2.719q-.625-.578-1.219-.844-.594-.281-1.219-.281-1.344 0-2.031 1.078-.687 1.062-.687 3.156t.687 3.172q.688 1.062 2.031 1.062.625 0 1.219-.265.594-.281 1.219-.86z"/><text x="101.25" y="32.78" fill="#D9B8FF" font-family="Helvetica" font-size="17" textLength="71">resource</text><path d="M8 46.789h225" style="stroke:#000d19;stroke-width:.5"/><text x="18" y="68.784" fill="#D9B8FF" font-family="sans-serif" font-size="14" font-weight="bold" textLength="29">age</text><text x="47" y="68.784" fill="#D9B8FF" font-family="sans-serif" font-size="14" textLength="66">: duration</text><text x="18" y="95.081" fill="#D9B8FF" font-family="sans-serif" font-size="14" font-weight="bold" textLength="43">atime</text><text x="61" y="95.081" fill="#D9B8FF" font-family="sans-serif" font-size="14" textLength="70">: datetime</text><text x="18" y="121.378" fill="#D9B8FF" font-family="sans-serif" font-size="14" font-weight="bold" textLength="43">ctime</text><text x="61" y="121.378" fill="#D9B8FF" font-family="sans-serif" font-size="14" textLength="70">: datetime</text><text x="18" y="147.675" fill="#D9B8FF" font-family="sans-serif" font-size="14" font-weight="bold" textLength="14">id</text><text x="32" y="147.675" fill="#D9B8FF" font-family="sans-serif" font-size="14" textLength="48">: string</text><text x="18" y="173.972" fill="#D9B8FF" font-family="sans-serif" font-size="14" font-weight="bold" textLength="33">kind</text><text x="51" y="173.972" fill="#D9B8FF" font-family="sans-serif" font-size="14" textLength="48">: string</text><text x="18" y="200.269" fill="#D9B8FF" font-family="sans-serif" font-size="14" font-weight="bold" textLength="90">last_access</text><text x="108" y="200.269" fill="#D9B8FF" font-family="sans-serif" font-size="14" textLength="66">: duration</text><text x="18" y="226.565" fill="#D9B8FF" font-family="sans-serif" font-size="14" font-weight="bold" textLength="90">last_update</text><text x="108" y="226.565" fill="#D9B8FF" font-family="sans-serif" font-size="14" textLength="66">: duration</text><text x="18" y="252.862" fill="#D9B8FF" font-family="sans-serif" font-size="14" font-weight="bold" textLength="48">mtime</text><text x="66" y="252.862" fill="#D9B8FF" font-family="sans-serif" font-size="14" textLength="70">: datetime</text><text x="18" y="279.159" fill="#D9B8FF" font-family="sans-serif" font-size="14" font-weight="bold" textLength="43">name</text><text x="61" y="279.159" fill="#D9B8FF" font-family="sans-serif" font-size="14" textLength="48">: string</text><text x="18" y="305.456" fill="#D9B8FF" font-family="sans-serif" font-size="14" font-weight="bold" textLength="34">tags</text><text x="52" y="305.456" fill="#D9B8FF" font-family="sans-serif" font-size="14" textLength="171">: dictionary[string, string]</text><path fill="none" d="M120.5 335.84v102.83m0-120.83-6 18h12zm0 178.98v102.34m0-120.34-6 18h12z" style="stroke:#ffaf37;stroke-width:2"/></svg>
